X:371
T: ZU FRANKFURTH  STAND EIN SCHIENES HAUS
N: E0209B
O: Europa, Mitteleuropa, Deutschland, Westfalen
R: erzaehlendes Volks - Lied, Mahn -, Moral - Lied, Strafe; Geiz
M: 2/4
L: 1/16
K: D
DE | F2F2F2F2 | E2D2D2
DE | F2F2A2F2 | E4D2
DE | F2F2F2F2 | E2D2E2
DE | F2F2F2F2 | E2D2E2
DE | F2F2A2F2 | E4D2

